common/src/main/resources/glyphs/plugins/resharper/ServicesNavigation/UsageConversionType.svg

<svg xmlns="http://www.w3.org/2000/svg" width="16" height="16" data-big="true" viewBox="0 0 24 24"><path fill="#F06292" d="m12 0-.66.03 3.81 3.81L16.5 2.5c3.25 1.57 5.59 4.74 5.95 8.5h1.5C23.44 4.84 18.29 0 12 0m0 4c-1.93 0-3.5 1.57-3.5 3.5S10.07 11 12 11s3.5-1.57 3.5-3.5S13.93 4 12 4M.05 13C.56 19.16 5.71 24 12 24l.66-.03-3.81-3.81L7.5 21.5c-3.25-1.56-5.59-4.74-5.95-8.5zM12 13c-3.87 0-7 1.57-7 3.5V18h14v-1.5c0-1.93-3.13-3.5-7-3.5"/></svg>

<!--
  - The MIT License (MIT)
  -
  - Copyright (c) 2015-2024 Elior "Mallowigi" Boukhobza
  -
  - Permission is hereby granted, free of charge, to any person obtaining a copy
  - of this software and associated documentation files (the "Software"), to deal
  - in the Software without restriction, including without limitation the rights
  - to use, copy, modify, merge, publish, distribute, sublicense, and/or sell
  - copies of the Software, and to permit persons to whom the Software is
  - furnished to do so, subject to the following conditions:
  -
  - The above copyright notice and this permission notice shall be included in all
  - copies or substantial portions of the Software.
  -
  - THE SOFTWARE IS PROVIDED "AS IS", WITHOUT WARRANTY OF ANY KIND, EXPRESS OR
  - IMPLIED, INCLUDING BUT NOT LIMITED TO THE WARRANTIES OF MERCHANTABILITY,
  - FITNESS FOR A PARTICULAR PURPOSE AND NONINFRINGEMENT. IN NO EVENT SHALL THE
  - AUTHORS OR COPYRIGHT HOLDERS BE LIABLE FOR ANY CLAIM, DAMAGES OR OTHER
  - LIABILITY, WHETHER IN AN ACTION OF CONTRACT, TORT OR OTHERWISE, ARISING FROM,
  - OUT OF OR IN CONNECTION WITH THE SOFTWARE OR THE USE OR OTHER DEALINGS IN THE
  - SOFTWARE.
  -->


<svg data-big="true" xmlns="http://www.w3.org/2000/svg" version="1.1" width="16px" height="16px" viewBox="0 0 24 24">
  <path fill="#F06292"
        d="M12 0L11.34 .03L15.15 3.84L16.5 2.5C19.75 4.07 22.09 7.24 22.45 11H23.95C23.44 4.84 18.29 0 12 0M12 4C10.07 4 8.5 5.57 8.5 7.5C8.5 9.43 10.07 11 12 11C13.93 11 15.5 9.43 15.5 7.5C15.5 5.57 13.93 4 12 4M.05 13C.56 19.16 5.71 24 12 24L12.66 23.97L8.85 20.16L7.5 21.5C4.25 19.94 1.91 16.76 1.55 13H.05M12 13C8.13 13 5 14.57 5 16.5V18H19V16.5C19 14.57 15.87 13 12 13Z"/>
</svg>
